X:96
T: ES STUNDEN DREI ROSEN AUF EINEM ZWEIG
N: B0125
O: Europa, Mitteleuropa, Deutschland
R: Ballade, Romanze
M: 4/4
L: 1/8
K: Eb
B,2 | E2FAG2FE | G2A2B2z2 |
e4dcB2 | c2B2z2
B2 | e2BBc2BA | G2A2B2z2 |
A4GFE2 | F2E2z2

@@@ Tune index: 1899
